!!!OTL: DIE MARIANDL IST SO SCHOEN
!!!ARE: Europa, Mitteleuropa, Oesterreich
!!!SCT: Z0150
!!!YEM: Copyright 1995, estate of Helmut Schaffrath.
**kern
*ICvox
*Ivox
*M2/4
*k[]
*C:
{8G
=1
8G
8G
8A
8B
=2
4c
8r}
{16G
16G
=3
8G
8A
8B
8c
=4
4c#
8d}
{8d
=5
8d
8c#
8d
8e
=6
8f
8e
8d}
{8c
=7
8B
16G
16G
8A
8B
=8
4c
8r}
{8G
=9
8G
8G
8A
8B
=10
4.c}
{8G
=11
8G
8A
8B
8c
=12
4c#
8d}
{8d
=13
8d
8c#
8d
8e
=14
8f
8e
8d}
{8c
=15
8B
16G
16G
8A
8B
=16
4c
8r}
{8c
=17
8c
8B
8A
16G
16G
=18
8F#
8G
8A}
{8F#
=19
8G
8A
8B
8c
=20
4c#
8d}
{8d
=21
8c
8B
8A
8G
=22
8F#
8G
8A}
{8F#
=23
8G
8B
8A
8d
=24
4G
8r}
{16G
16G
=25
8G
8G
8A
8B
=26
4c
8r}
{16G
16G
=27
8G
8A
8B
8c
=28
4c#
8d}
{8d
=29
8d
8c#
8d
8e
=30
8f
8e
8d}
{8c
=31
8B
16G
16G
8A
8B
=32
4c
8r}
{8g
=33
8g
16B
16B
8B
8B
=34
8c
4r}
==
!!!AGN: Erzaehlung, lustige Romanze
!!!ONB: ESAC (Essen Associative Code) Database: ZUCCAL
!!!AMT: simple duple
!!!AIN: vox
!!!EED: Helmut Schaffrath
!!!EEV: 1.0
*-
